theme/icons/chevron-double-down-r.svg

<svg fill="none" height="24" width="24" xmlns="http://www.w3.org/2000/svg"><g fill="#f4f4f7"><path d="m7.757 8.464 1.415-1.414 2.828 2.83 2.828-2.829 1.415 1.415-4.243 4.241z"/><path d="m9.172 11.293-1.415 1.414 4.243 4.243 4.243-4.243-1.415-1.414-2.828 2.827z"/><path clip-rule="evenodd" d="m1 5a4 4 0 0 1 4-4h14a4 4 0 0 1 4 4v14a4 4 0 0 1 -4 4h-14a4 4 0 0 1 -4-4zm4-2h14a2 2 0 0 1 2 2v14a2 2 0 0 1 -2 2h-14a2 2 0 0 1 -2-2v-14a2 2 0 0 1 2-2z" fill-rule="evenodd"/></g></svg>

<svg fill="none" height="24" width="24" xmlns="http://www.w3.org/2000/svg">
    <g fill="#f4f4f7">
        <path d="M7.757 8.464 9.172 7.05 12 9.88l2.828-2.829 1.415 1.415L12 12.707z"/>
        <path d="m9.172 11.293-1.415 1.414L12 16.95l4.243-4.243-1.415-1.414L12 14.12z"/>
        <path clip-rule="evenodd" d="M1 5a4 4 0 0 1 4-4h14a4 4 0 0 1 4 4v14a4 4 0 0 1-4 4H5a4 4 0 0 1-4-4zm4-2h14a2 2 0 0 1 2 2v14a2 2 0 0 1-2 2H5a2 2 0 0 1-2-2V5a2 2 0 0 1 2-2z" fill-rule="evenodd"/>
    </g>
</svg>
